**kern	**kern	**dynam
*part1	*part1	*part1
*staff2	*staff1	*
*I"Piano	*	*
*clefF4	*clefG2	*
*k[]	*k[]	*
=1	=1	=1
*	*^	*
4E 4B	(8ddL	4g#X	<
.	8b)	.	.
8BB 8B	8ffJ	8a	.
=	=	=	=
4E 4d	4b	4g#X	[ >
8E 8d	8b	8g#	.
=	=	=	=
4E 4B	(8ddL	4g#X	] <
.	8b)	.	.
8BB 8B	8ffJ	8a	.
=	=	=	=
4E 4d	4b	4g#X	[ >
8E 8B	8dd	8g#	.
=	=	=	=
4E 4d	(8ccL	4g#X	]
!	!LO:TX:b:i:t=cresc.	!	!
.	8b)	.	.
8E 8B	8ffJ	8g#	.
=	=	=	=
4F 4B	(8ee-XL	4a-X	<
.	8dd)	.	.
8F 8B	8aa-XJ	8a-	.
=	=	=	=
4.BB-X: 4.F: 4.d:	(4.gg	[4.a-X	[ sf
=	=	=	=
4BB-X: 4F: 4d:	4ff)	4a-]	.
8B-X 8d	8a-X 8b-X	8ryy	f
*	*v	*v	*
=||	=||	=||
*k[b-e-a-]	*k[b-e-a-]	*
*	*^	*
4E- 4e-	(8ee-L	4g	.
.	8b-)	.	.
8A- 8e-	8ccJ	8a-	.
*	*v	*v	*
=	=	=
*-	*-	*-
!!!system-decoration: {(s1,s2)}
